X: 27
T: Castle Kelly
Z: Aberfoyle Whistler
S: https://thesession.org/tunes/21#setting52424
R: reel
M: 4/4
L: 1/8
K: Amin
|:A2 cA ABcA|G ~E3 GGEG|A2 cA GAcd|1~e3 d cA G2:|2~e3 d cA A2||
agec dfed|cAGE G4|egec ddcd|eaag ~a3 a|
agec dfed|cAGE GGEG|AAcA GAB/c/d|~e3 d cA A2||

%-------------------- TUNE SEPARATOR --------------------%

